src/images/skills/html5.svg

<svg width="256" height="361" xmlns="http://www.w3.org/2000/svg" preserveAspectRatio="xMinYMin meet">

 <g>
  <title>background</title>
  <rect fill="none" id="canvas_background" height="402" width="582" y="-1" x="-1"/>
 </g>
 <g>
  <title>Layer 1</title>
  <path id="svg_1" fill="#E44D26" d="m255.555,70.766l-23.241,260.36l-104.47,28.962l-104.182,-28.922l-23.217,-260.4l255.11,0z"/>
  <path id="svg_2" fill="#F16529" d="m128,337.95l84.417,-23.403l19.86,-222.49l-104.277,0l0,245.893z"/>
  <path id="svg_3" fill="#EBEBEB" d="m82.82,155.932l45.18,0l0,-31.937l-80.083,0l0.764,8.568l7.85,88.01l71.469,0l0,-31.937l-42.261,0l-2.919,-32.704zm7.198,80.61l-32.06,0l4.474,50.146l65.421,18.16l0.147,-0.04l0,-33.228l-0.14,0.037l-35.568,-9.604l-2.274,-25.471z"/>
  <path id="svg_4" d="m24.18,0l16.23,0l0,16.035l14.847,0l0,-16.035l16.231,0l0,48.558l-16.23,0l0,-16.26l-14.847,0l0,16.26l-16.23,0l0,-48.558l-0.001,0zm68.65,16.103l-14.286,0l0,-16.103l44.814,0l0,16.103l-14.295,0l0,32.455l-16.23,0l0,-32.455l-0.001,0l-0.002,0zm37.64,-16.103l16.923,0l10.41,17.062l10.4,-17.062l16.93,0l0,48.558l-16.164,0l0,-24.068l-11.166,17.265l-0.28,0l-11.173,-17.265l0,24.068l-15.88,0l0,-48.558zm62.74,0l16.235,0l0,32.508l22.824,0l0,16.05l-39.06,0l0,-48.558l0.001,0z"/>
  <path id="svg_5" fill="#FFF" d="m127.89,220.573l39.327,0l-3.708,41.42l-35.62,9.614l0,33.226l65.473,-18.145l0.48,-5.396l7.506,-84.08l0.779,-8.576l-74.237,0l0,31.937zm0,-64.719l0,0.078l77.143,0l0.64,-7.178l1.456,-16.191l0.763,-8.568l-80.002,0l0,31.86l0,-0.001z"/>
 </g>
</svg>

<svg width="1773" height="2500" viewBox="0 0 256 361" xmlns="http://www.w3.org/2000/svg" preserveAspectRatio="xMinYMin meet"><path d="M255.555 70.766l-23.241 260.36-104.47 28.962-104.182-28.922L.445 70.766h255.11z" fill="#E44D26"/><path d="M128 337.95l84.417-23.403 19.86-222.49H128V337.95z" fill="#F16529"/><path d="M82.82 155.932H128v-31.937H47.917l.764 8.568 7.85 88.01H128v-31.937H85.739l-2.919-32.704zM90.018 236.542h-32.06l4.474 50.146 65.421 18.16.147-.04V271.58l-.14.037-35.568-9.604-2.274-25.471z" fill="#EBEBEB"/><path d="M24.18 0h16.23v16.035h14.847V0h16.231v48.558h-16.23v-16.26H40.411v16.26h-16.23V0zM92.83 16.103H78.544V0h44.814v16.103h-14.295v32.455h-16.23V16.103h-.001zM130.47 0h16.923l10.41 17.062L168.203 0h16.93v48.558h-16.164V24.49l-11.166 17.265h-.28L146.35 24.49v24.068h-15.88V0zM193.21 0h16.235v32.508h22.824v16.05h-39.06V0z"/><path d="M127.89 220.573h39.327l-3.708 41.42-35.62 9.614v33.226l65.473-18.145.48-5.396 7.506-84.08.779-8.576H127.89v31.937zM127.89 155.854v.078h77.143l.64-7.178 1.456-16.191.763-8.568H127.89v31.86z" fill="#FFF"/></svg>
